assets/amenitiesIcons/PetBasket.svg

<?xml version="1.0" encoding="utf-8"?>
<!-- Uploaded to: SVG Repo, www.svgrepo.com, Generator: SVG Repo Mixer Tools -->
<svg fill="#000000" width="800px" height="800px" viewBox="0 0 32 32" version="1.1" xmlns="http://www.w3.org/2000/svg">
<title>shopping-basket</title>
<path d="M30 13.25h-5.572l-5.723-10.606c-0.129-0.236-0.376-0.394-0.66-0.394-0.414 0-0.75 0.336-0.75 0.75 0 0.131 0.033 0.253 0.092 0.36l-0.002-0.004 5.338 9.894h-13.415l5.395-9.891c0.055-0.101 0.087-0.222 0.087-0.35 0-0.414-0.336-0.75-0.75-0.75-0.279 0-0.522 0.152-0.651 0.377l-0.002 0.004-5.787 10.609h-5.6c-0.414 0-0.75 0.336-0.75 0.75s0.336 0.75 0.75 0.75v0h1.389l1.913 14.35c0.050 0.369 0.364 0.65 0.742 0.65 0 0 0 0 0.001 0h20c0.379-0 0.693-0.281 0.744-0.646l0-0.004 1.913-14.35h1.298c0.414 0 0.75-0.336 0.75-0.75s-0.336-0.75-0.75-0.75v0zM25.389 28.25h-18.688l-1.8-13.5h22.287zM16.044 17.25h-0.004c0 0 0 0 0 0-0.413 0-0.748 0.334-0.75 0.746v0l-0.035 7c0 0.001 0 0.002 0 0.004 0 0.413 0.334 0.748 0.746 0.75h0.004c0.413-0 0.747-0.334 0.75-0.746v-0l0.035-7c0-0.001 0-0.002 0-0.004 0-0.413-0.334-0.748-0.746-0.75h-0zM11.065 17.25h-0.004c0 0 0 0 0 0-0.413 0-0.748 0.334-0.75 0.746v0l-0.034 7c0 0.001 0 0.002 0 0.004 0 0.413 0.334 0.748 0.746 0.75h0.004c0.413-0 0.747-0.334 0.75-0.746v-0l0.034-7c0-0.001 0-0.002 0-0.004 0-0.413-0.334-0.748-0.746-0.75h-0zM21.016 17.25h-0.004c0 0 0 0 0 0-0.413 0-0.748 0.334-0.75 0.746v0l-0.033 7c0 0.001 0 0.002 0 0.004 0 0.413 0.334 0.748 0.746 0.75h0.004c0.413-0 0.747-0.334 0.75-0.746v-0l0.033-7c0-0.001 0-0.003 0-0.004 0-0.413-0.334-0.748-0.746-0.75h-0z"></path>
</svg>

<svg xmlns="http://www.w3.org/2000/svg" width="800" height="800" viewBox="0 0 32 32"><path d="M30 13.25h-5.572L18.705 2.644a.751.751 0 1 0-1.318.716l-.002-.004 5.338 9.894H9.308l5.395-9.891a.75.75 0 0 0-1.314-.723l-.002.004L7.6 13.249H2a.75.75 0 0 0 0 1.5h1.389l1.913 14.35a.75.75 0 0 0 .742.65h20.001a.752.752 0 0 0 .744-.646v-.004l1.913-14.35H30a.75.75 0 0 0 0-1.5zm-4.611 15H6.701l-1.8-13.5h22.287zm-9.345-11h-.004a.75.75 0 0 0-.75.746l-.035 7V25a.75.75 0 0 0 .746.75h.004a.75.75 0 0 0 .75-.746l.035-7V18a.75.75 0 0 0-.746-.75m-4.979 0h-.004a.75.75 0 0 0-.75.746l-.034 7V25a.75.75 0 0 0 .746.75h.004a.75.75 0 0 0 .75-.746l.034-7V18a.75.75 0 0 0-.746-.75m9.951 0h-.004a.75.75 0 0 0-.75.746l-.033 7V25a.75.75 0 0 0 .746.75h.004a.75.75 0 0 0 .75-.746l.033-7V18a.75.75 0 0 0-.746-.75"/></svg>
